icons/op-xls-16.svg

<svg width="16" height="16" viewBox="0 0 16 16" fill="none" xmlns="http://www.w3.org/2000/svg">
<path d="M9.84585 12.943C9.95661 13.2607 10.3214 13.5 10.8905 13.5C11.578 13.5 12 13.1421 12 12.5751C12 12.1347 11.7479 11.8874 11.1635 11.7647L10.8733 11.7024C10.5467 11.634 10.4149 11.5235 10.4149 11.3445C10.4149 11.1314 10.604 10.9906 10.8885 10.9906C11.1254 10.9906 11.303 11.0811 11.3946 11.3003C11.4596 11.4249 11.5398 11.4792 11.6696 11.4792C11.8167 11.4792 11.916 11.3807 11.916 11.2359C11.916 11.1836 11.9083 11.1414 11.895 11.1012C11.7727 10.7232 11.3927 10.5 10.8885 10.5C10.2755 10.5 9.8363 10.8519 9.8363 11.3827C9.8363 11.815 10.1056 12.0925 10.6556 12.2071L10.9478 12.2674C11.2934 12.3418 11.4233 12.4504 11.4233 12.6414C11.4233 12.8546 11.2132 13.0114 10.9038 13.0114C10.6403 13.0114 10.4245 12.9109 10.3347 12.6897C10.266 12.561 10.1877 12.5127 10.0693 12.5127C9.92033 12.5127 9.81529 12.6193 9.81529 12.7802C9.81529 12.8345 9.82675 12.8908 9.84585 12.943Z" fill="#24292F"/>
<path d="M5.27309 13.4899C5.12031 13.4899 5 13.3733 5 13.2265C5 13.1521 5.02292 13.0878 5.0783 13.0074L5.76579 11.998V11.9819L5.10121 11.0288C5.03819 10.9403 5.01719 10.874 5.01719 10.7956C5.01719 10.6307 5.14132 10.5101 5.30937 10.5101C5.41823 10.5101 5.49461 10.5603 5.56909 10.679L6.15919 11.5958H6.17447L6.78367 10.6588C6.85051 10.5543 6.9078 10.5101 7.01856 10.5101C7.16943 10.5101 7.29929 10.6247 7.29929 10.7694C7.29929 10.8479 7.27828 10.9122 7.2229 10.9866L6.50676 11.994V12.008L7.20189 12.9953C7.25537 13.0677 7.27828 13.1361 7.27828 13.2165C7.27828 13.3753 7.16179 13.4899 7.00138 13.4899C6.89634 13.4899 6.82568 13.4457 6.7512 13.3391L6.13628 12.4363H6.121L5.51562 13.3412C5.44305 13.4517 5.38194 13.4899 5.27309 13.4899Z" fill="#24292F"/>
<path d="M8.02735 13.4517C7.84592 13.4517 7.73898 13.3351 7.73898 13.134V10.8277C7.73898 10.6267 7.84592 10.5101 8.02735 10.5101C8.20877 10.5101 8.31571 10.6267 8.31571 10.8277V12.9491H9.29348C9.45008 12.9491 9.55511 13.0436 9.55511 13.2004C9.55511 13.3572 9.45199 13.4517 9.29348 13.4517H8.02735Z" fill="#24292F"/>
<path fill-rule="evenodd" clip-rule="evenodd" d="M3.75 0C2.7835 0 2 0.783502 2 1.75V14.25C2 15.2165 2.7835 16 3.75 16H13.25C14.2165 16 15 15.2165 15 14.25V4.66421C15 4.20008 14.8156 3.75497 14.4874 3.42678L11.5732 0.512563C11.245 0.184374 10.7999 0 10.3358 0H3.75ZM3.5 1.75C3.5 1.61193 3.61193 1.5 3.75 1.5H10.3358C10.4021 1.5 10.4657 1.52634 10.5126 1.57322L13.4268 4.48744C13.4737 4.53432 13.5 4.59791 13.5 4.66421V14.25C13.5 14.3881 13.3881 14.5 13.25 14.5H3.75C3.61193 14.5 3.5 14.3881 3.5 14.25V1.75Z" fill="#24292F"/>
</svg>

<svg xmlns="http://www.w3.org/2000/svg" width="16" height="16" viewBox="0 0 16 16"><path d="M9.846 12.943c.111.318.475.557 1.044.557.688 0 1.11-.358 1.11-.925 0-.44-.252-.688-.836-.81l-.291-.063c-.326-.068-.458-.178-.458-.357 0-.214.189-.354.474-.354.236 0 .414.09.506.309.065.125.145.179.275.179.147 0 .246-.098.246-.243a.425.425 0 0 0-.021-.135c-.122-.378-.502-.601-1.006-.601-.614 0-1.053.352-1.053.883 0 .432.27.709.82.824l.292.06c.345.075.475.183.475.374 0 .214-.21.37-.519.37-.264 0-.479-.1-.569-.321-.069-.129-.147-.177-.266-.177-.149 0-.254.106-.254.267a.48.48 0 0 0 .031.163Zm-4.573.547A.266.266 0 0 1 5 13.226c0-.074.023-.138.078-.219l.688-1.009v-.016l-.665-.953a.375.375 0 0 1-.084-.233.28.28 0 0 1 .292-.286c.109 0 .186.05.26.169l.59.917h.015l.61-.937c.067-.105.124-.149.235-.149.15 0 .28.115.28.259a.343.343 0 0 1-.076.218l-.716 1.007v.014l.695.987a.357.357 0 0 1 .076.221.266.266 0 0 1-.277.274c-.105 0-.175-.044-.25-.151l-.615-.903h-.015l-.605.905c-.073.111-.134.149-.243.149Zm2.754-.038c-.181 0-.288-.117-.288-.318v-2.306c0-.201.107-.318.288-.318.182 0 .289.117.289.318v2.121h.977c.157 0 .262.095.262.251 0 .157-.103.252-.262.252H8.027Z"/><path d="M3.75 0h6.586c.464 0 .909.184 1.237.513l2.914 2.914c.329.328.513.773.513 1.237v9.586A1.75 1.75 0 0 1 13.25 16h-9.5A1.75 1.75 0 0 1 2 14.25V1.75C2 .784 2.783 0 3.75 0ZM3.5 1.75v12.5c0 .138.112.25.25.25h9.5a.25.25 0 0 0 .25-.25V4.664a.25.25 0 0 0-.073-.177l-2.914-2.914a.25.25 0 0 0-.177-.073H3.75a.25.25 0 0 0-.25.25Z"/></svg>
